X: 4
T: Missa L'homme arm\'e / Sanctus
N: Derived from Tin1001d-Missa_Lhomme_arme-Sanctus.krn
C: Johannes Tinctoris
%%abc-version 2.0
%%abcx-abcm2ps-target-version 5.9.1 (29 Sep 2008)
%%abc-creator hum2abc beta
%%abcx-conversion-date 2019/02/17 07:34:55
%%abc-edited-by Jesse Rodin
%%abc-edited-by Complete Works Edition (Melin)
%%abcx-initial-encoding-date 2014/06/10/
%%humdrum-veritas 256524510
%%humdrum-veritas-data 3716344336
%%linebreak <none>
%%barnumbers 0
L: 1/4
M: 3/1
Q: 1/2=120
%%staves [1 2 3 4]
V: 1 clef=treble
V: 2 clef=treble-8
V: 3 clef=treble-8
V: 4 clef=bass
K: F
[V:1] G6E3FG2 | 
[V:2] d4d2eg2f/e/d2 | 
[V:3] z6G4G2 | 
[V:4] G,,6C,4B,,2 | 
[V:1] A3BcABG2^FFE | 
[V:2] zc3/B/A/G/^F3/E/G2z2A2 | 
[V:3] c4c2B2A4 | 
[V:4] A,,6G,,2D,4 | 
[V:1] G4z2D3EF2- | 
[V:2] B3cd3ef3e | 
[V:3] G6z6 | 
[V:4] z2G,,3A,,B,,3C,D,2 | 
[V:1] FEDCB,3G,D4 | 
[V:2] dcB3Gd2z2g2- | 
[V:3] d2d2d2G6 | 
[V:4] B,,3A,,G,,8 | 
[V:1] E2F3GA3GFE | 
[V:2] gf/e/d3ef3ga2- | 
[V:3] z6d2d2d2 | 
[V:4] C,2D,6D,4 | 
[V:1] F2E3DD4C2 | 
[V:2] ag/f/gag2g3^f/e/^f2 | 
[V:3] d2c4B2A4 | 
[V:4] z4z4z2A,2 | 
[V:1] D12 | 
[V:2] g4G2B3A/G/A2 | 
[V:3] G8z2z2 | 
[V:4] B,6G,3F,D,2 | 
[V:1] z12 | 
[V:2] G2c3d2c/B/Ac3/B/A/G/ | 
[V:3] G4G2F4F2 | 
[V:4] E,2C,3B,,D,3C,/B,,/A,,2 | 
[V:1] [M:3/1]G6F6 | 
[V:2] B3GBcd3c/B/A2 | 
[V:3] G4G2D2z2z2 | 
[V:4] G,,4z4D,4 | 
[V:1] G6D6 | 
[V:2] G8z4 | 
[V:3] z12 | 
[V:4] E,2C,3G,,B,,3A,,G,,2- | 
[V:1] [M:3/1]z2B,2C2A,D3/C/B,A,2 | 
[V:2] [M:3/1]g6f6 | 
[V:3] z12 | 
[V:4] G,,2G,2C,2D,6 | 
[V:1] G,8z4 | 
[V:2] g6d6 | 
[V:3] z12 | 
[V:4] E,2C,4G,3F,G,2 | 
[V:1] G2A3GF2E4 | 
[V:2] e2f3ed4^c2 | 
[V:3] z12 | 
[V:4] E,2D,3E,F,G,A,4 | 
[V:1] D4z2D2F3G | 
[V:2] [M:3/1]d3c/B/A8 | 
[V:3] z2D4F3GAB | 
[V:4] D,2F,3G,A,B,C4 | 
[V:1] ABc3BA4G2 | 
[V:2] z12 | 
[V:3] c2A2c2d2B4 | 
[V:4] F,2A,4D,2G,4 | 
[V:1] A4z2F2G3A/B/ | 
[V:2] d8G4 | 
[V:3] A8z4 | 
[V:4] D,8E,3F,/G,/ | 
[V:1] c4B3AG2A2- | 
[V:2] z2A2B3c/d/_e2c2 | 
[V:3] F4G3A/B/c4 | 
[V:4] A,4z2G,2C,2F,2 | 
[V:1] AGFED2G3^FFE/F/ | 
[V:2] z2A2B2c2d4 | 
[V:3] d3cBAG2A4 | 
[V:4] D,3E,/F,/G,2E,2D,4 | 
[V:1] G8z2G2 | 
[V:2] B2c3/B/G3F/E/F2G2 | 
[V:3] G8z4 | 
[V:4] G,,2C,3B,,G,,2A,,2G,,G, | 
[V:1] A3Bc2=B3/c/d=B2A | 
[V:2] zF2GA2Gg3/f/ed2 | 
[V:3] z6G4G2 | 
[V:4] F,A,2G,F,2G,2z2G,2 | 
[V:1] c4z4z2A2 | 
[V:2] c3/d/efg2g3^f/e/^f2 | 
[V:3] c4c2B2A4 | 
[V:4] C,3D,E,F,G,2D,4 | 
[V:1] B3AB2c3BAG | 
[V:2] g3f/e/d2c3dc3/B/ | 
[V:3] G6z6 | 
[V:4] z2G,,4A,,3B,,C,2 | 
[V:1] F3GA2B3AGF/E/ | 
[V:2] A2A3B/c/B3/c/d3c/B/ | 
[V:3] d4d2G6 | 
[V:4] D,3E,F,2G,3/A,/B,3A,/G,/ | 
[V:1] F2G2D2zB,DEF3/G/ | 
[V:2] c2d2zB3/c/dBA/G/A2 | 
[V:3] z4z2d2d4 | 
[V:4] A,2G,4G,3F,/E,/D,3/E,/ | 
[V:1] ABc2A3/G/G3^F/G/FE | 
[V:2] F4A2d3c/B/A2 | 
[V:3] d2c4B2A4 | 
[V:4] F,G,A,2F,2G,2D,4 | 
[V:1] G12 ||  
[V:2] B3Gd8 ||  
[V:3] G12 ||  
[V:4] G,,12 ||  
[V:1]  [K:F] [K:clef=treble][M:2/1]G8 | 
[V:2]  [K:F] [K:clef=treble-8][M:2/1]G4c4- | 
[V:3]  [K:F] [K:clef=treble-8][M:2/1]z8 | 
[V:4]  [K:F] [K:clef=bass][M:2/1]z8 | 
[V:1] G6FE | 
[V:2] c2d2e2de | 
[V:3] z8 | 
[V:4] z8 | 
[V:1] D8 | 
[V:2] f6ed | 
[V:3] z8 | 
[V:4] z8 | 
[V:1] E4D2F2- | 
[V:2] c4z2d2- | 
[V:3] z8 | 
[V:4] z8 | 
[V:1] FEDCB,4- | 
[V:2] dcBAG2d2- | 
[V:3] z8 | 
[V:4] z8 | 
[V:1] B,2CD_E2D2- | 
[V:2] d2cBc2f2- | 
[V:3] z8 | 
[V:4] z8 | 
[V:1] DCC4=B,2 | 
[V:2] fge2d4 | 
[V:3] z8 | 
[V:4] z8 | 
[V:1] C4B,4 | 
[V:2] c3BG4 | 
[V:3] z8 | 
[V:4] z8 | 
[V:1] G,8 | 
[V:2] z2d4g2- | 
[V:3] z8 | 
[V:4] z8 | 
[V:1] A,8 | 
[V:2] g2^f2^f2e^f | 
[V:3] z8 | 
[V:4] z8 | 
[V:1] z4G,4- | 
[V:2] g8- | 
[V:3] z8 | 
[V:4] z8 | 
[V:1] G,2C3DE2 | 
[V:2] g8 | 
[V:3] z8 | 
[V:4] z8 | 
[V:1] F2D4G2- | 
[V:2] z4G4- | 
[V:3] z8 | 
[V:4] z8 | 
[V:1] GFEDG4 | 
[V:2] G2c3de2 | 
[V:3] z8 | 
[V:4] z8 | 
[V:1] A4B4 | 
[V:2] f2d4g2 | 
[V:3] z8 | 
[V:4] z8 | 
[V:1] G2A3GFE | 
[V:2] e2c2d3c | 
[V:3] z8 | 
[V:4] z8 | 
[V:1] D2E2D2G2- | 
[V:2] BAG4B2 | 
[V:3] z8 | 
[V:4] z8 | 
[V:1] G2F2B3A/B/ | 
[V:2] A4G2d2- | 
[V:3] z8 | 
[V:4] z8 | 
[V:1] AGG4^F2 | 
[V:2] dBc2A4 | 
[V:3] z8 | 
[V:4] z8 | 
[V:1] G8 | 
[V:2] G4z4 | 
[V:3] z8 | 
[V:4] z4G,,4 | 
[V:1] z8 | 
[V:2] G4c4 | 
[V:3] z8 | 
[V:4] C,4z4 | 
[V:1] z8 | 
[V:2] z2G2c3d | 
[V:3] z8 | 
[V:4] G,,2C,3D,E,F, | 
[V:1] z8 | 
[V:2] ecg4f2 | 
[V:3] z8 | 
[V:4] G,3F,E,2D,2 | 
[V:1] z8 | 
[V:2] e2dcd2e2- | 
[V:3] z8 | 
[V:4] G,4F,2G,2- | 
[V:1] z8 | 
[V:2] edc4=B2 | 
[V:3] z8 | 
[V:4] G,F,E,2D,4 | 
[V:1] z8 | 
[V:2] c4z4 | 
[V:3] z8 | 
[V:4] C,4A,,4- | 
[V:1] z8 | 
[V:2] A6Bc | 
[V:3] z8 | 
[V:4] A,,2B,,C,D,4 | 
[V:1] z8 | 
[V:2] d4B2G2- | 
[V:3] z8 | 
[V:4] B,,2G,,6 | 
[V:1] z8 | 
[V:2] G2c4A2- | 
[V:3] z8 | 
[V:4] C,4F,4 | 
[V:1] z8 | 
[V:2] A2d4e2 | 
[V:3] z8 | 
[V:4] D,4G,4 | 
[V:1] z8 | 
[V:2] f4d2e2- | 
[V:3] z8 | 
[V:4] F,2D,4C,2 | 
[V:1] z8 | 
[V:2] edd4^c2 | 
[V:3] z8 | 
[V:4] D,2F,2E,4 | 
[V:1] z8 | 
[V:2] d4z4 | 
[V:3] z8 | 
[V:4] D,8 | 
[V:1] z8 | 
[V:2] d6cB | 
[V:3] z8 | 
[V:4] z4D,4- | 
[V:1] z8 | 
[V:2] A6c2- | 
[V:3] z8 | 
[V:4] D,2C,B,,A,,4- | 
[V:1] z8 | 
[V:2] cBG4B2 | 
[V:3] z8 | 
[V:4] A,,2C,3B,,G,,2 | 
[V:1] z8 | 
[V:2] A2d3ce2- | 
[V:3] z8 | 
[V:4] D,3E,F,2G,2- | 
[V:1] z8 | 
[V:2] edcBA4 | 
[V:3] z8 | 
[V:4] G,F,A,2^F,3E, | 
[V:1] z4G4 | 
[V:2] G8 | 
[V:3] z8 | 
[V:4] G,8- | 
[V:1] B4B4 | 
[V:2] z4d4 | 
[V:3] z8 | 
[V:4] G,8 | 
[V:1] A2D3EF2 | 
[V:2] f4f4 | 
[V:3] z8 | 
[V:4] D,3E,F,4 | 
[V:1] G4A2B2- | 
[V:2] e4d2G2- | 
[V:3] z8 | 
[V:4] C,4z4 | 
[V:1] BAGFE4 | 
[V:2] GAB2c4 | 
[V:3] z8 | 
[V:4] G,4A,4 | 
[V:1] z2D4F2- | 
[V:2] d3ef2d2- | 
[V:3] z8 | 
[V:4] D,4z2D,2- | 
[V:1] FGA2B2c2- | 
[V:2] d2c2d2A2 | 
[V:3] z8 | 
[V:4] D,E,F,2D,2A,2- | 
[V:1] cBA4G2 | 
[V:2] c2d2B4 | 
[V:3] z8 | 
[V:4] A,2F,2G,4 | 
[V:1] A8 | 
[V:2] A8- | 
[V:3] z8 | 
[V:4] D,4z4 | 
[V:1] z4D4- | 
[V:2] A8 | 
[V:3] z8 | 
[V:4] D,6E,F, | 
[V:1] D2EFG4 | 
[V:2] z8 | 
[V:3] z8 | 
[V:4] G,6E,2 | 
[V:1] A2G4E2 | 
[V:2] z8 | 
[V:3] z8 | 
[V:4] F,2E,2C,4 | 
[V:1] F2D3CB,2 | 
[V:2] z8 | 
[V:3] z8 | 
[V:4] D,4G,,4 | 
[V:1] A,4z2A,2- | 
[V:2] z8 | 
[V:3] z8 | 
[V:4] z2A,,3B,,C,2 | 
[V:1] A,B,C2D4 | 
[V:2] z8 | 
[V:3] z8 | 
[V:4] D,2z2G,,3A,, | 
[V:1] z2G,3A,B,2 | 
[V:2] z8 | 
[V:3] z8 | 
[V:4] B,,2C,4B,,2 | 
[V:1] C3B,A,G,B,2- | 
[V:2] z8 | 
[V:3] z8 | 
[V:4] A,,G,,C,3B,,D,2- | 
[V:1] B,A,G,4^F,2 | 
[V:2] z8 | 
[V:3] z8 | 
[V:4] D,C,B,,2A,,4 | 
[V:1] G,8 | 
[V:2] [M:2/1]z8 | 
[V:3] z8 | 
[V:4] G,,8- | 
[V:1] [M:3/1]z4z4D4- | 
[V:2] z12 | 
[V:3] [M:3/1]z12 | 
[V:4] G,,12 | 
[V:1] D2E2D4G4- | 
[V:2] z4z4G4- | 
[V:3] z12 | 
[V:4] [M:3/1]z4G,,6A,,2 | 
[V:1] G4z4G4- | 
[V:2] G2A2G4c4- | 
[V:3] z12 | 
[V:4] G,,4C,8 | 
[V:1] G2A2G4c4- | 
[V:2] c4z4c4- | 
[V:3] z12 | 
[V:4] z4C,6D,2 | 
[V:1] c4A6B2 | 
[V:2] c2d2c4f4 | 
[V:3] z12 | 
[V:4] C,4F,6E,2 | 
[V:1] c4=B6A=B | 
[V:2] e4d8 | 
[V:3] z12 | 
[V:4] C,4G,8 | 
[V:1] c8A4 | 
[V:2] c4e4f4 | 
[V:3] z12 | 
[V:4] C,4A,,8 | 
[V:1] B4G8 | 
[V:2] g8e4 | 
[V:3] z12 | 
[V:4] G,,4C,6D,E, | 
[V:1] A4F6EF | 
[V:2] c4d8 | 
[V:3] z12 | 
[V:4] F,4D,8 | 
[V:1] G4D4z4 | 
[V:2] B6ABc4 | 
[V:3] z12 | 
[V:4] G,,8A,,3B,, | 
[V:1] E6F2G4 | 
[V:2] G6A2B4 | 
[V:3] z12 | 
[V:4] C,8B,,4 | 
[V:1] A6B2c4 | 
[V:2] c6B2A2G2 | 
[V:3] z12 | 
[V:4] A,,4A,,8 | 
[V:1] B4A6G2 | 
[V:2] d8c4 | 
[V:3] z12 | 
[V:4] G,,4D,4F,4 | 
[V:1] G6^FGF2E2 | 
[V:2] B4A8 | 
[V:3] z12 | 
[V:4] G,4D,8 | 
[V:1] G12 ||  
[V:2] G12 ||  
[V:3] z12 ||  
[V:4] G,,12 ||  
[V:1]  [K:F] [K:clef=treble][M:2/1]z8 | 
[V:2]  [K:F] [K:clef=treble-8][M:2/1]g8- :
[V:3]  [K:F] [K:clef=treble-8][M:2/1]d8 | 
[V:4]  [K:F] [K:clef=bass][M:2/1]G,8 | 
[V:1] z8 | 
[V:2] g8 :
[V:3] G2ABc2B2- | 
[V:4] E,4C,2G,2- | 
[V:1] z8 | 
[V:2] g8 :
[V:3] B2A2G2FE | 
[V:4] G,2F,2E,2D,C, | 
[V:1] z8 | 
[V:2] f8- :
[V:3] DEFGA3B | 
[V:4] D,3E,F,G,A,2- | 
[V:1] z8 | 
[V:2] f8 :
[V:3] c2d2z2D2- | 
[V:4] A,2B,2A,2D2- | 
[V:1] z8 | 
[V:2] f8 | 
[V:3] D4D4 | 
[V:4] DCB,2A,4 | 
[V:1] G4E4- | 
[V:2] g8- :
[V:3] E4C4- | 
[V:4] G,8 | 
[V:1] E2F2G2A2 | 
[V:2] g8 :
[V:3] C2D2E2F2 | 
[V:4] z4C,4- | 
[V:1] G4G4- | 
[V:2] e8 :
[V:3] G6A2 | 
[V:4] C,2D,2E,2F,2 | 
[V:1] G2FED4 | 
[V:2] d8 :
[V:3] B6AG | 
[V:4] G,6F,E, | 
[V:1] z2D3EF2 | 
[V:2] z8 :
[V:3] A2B2A4 | 
[V:4] F,2G,4F,2 | 
[V:1] G2E2D4 | 
[V:2] x8 | 
[V:3] G2c4B2 | 
[V:4] E,2C,2G,4 | 
[V:1] C3B,G,4 | 
[V:2] g8- :
[V:3] c2_e4dc | 
[V:4] C,6B,,A,, | 
[V:1] z4z2D2 | 
[V:2] g8 :
[V:3] d2_e2d4 | 
[V:4] B,,2C,4=B,,2 | 
[V:1] E2C4B,2 | 
[V:2] g8 :
[V:3] c3BG4 | 
[V:4] C,4E,4 | 
[V:1] D4A,3B, | 
[V:2] f8- :
[V:3] A2D3EFG | 
[V:4] D,8 | 
[V:1] C2D3CB,2 | 
[V:2] f8 :
[V:3] A2B2A2d2- | 
[V:4] z4D,4- | 
[V:1] A,4D4 | 
[V:2] f8 | 
[V:3] dcB2A4 | 
[V:4] D,4D,4 | 
[V:1] B,2G,4C2- | 
[V:2] g8- :
[V:3] G4z2G2- | 
[V:4] _E,4C,4 | 
[V:1] CA,B,CD4 | 
[V:2] g8 :
[V:3] GFGAB4 | 
[V:4] C,2B,,A,,G,,4 | 
[V:1] C6B,C | 
[V:2] e8 :
[V:3] A8 | 
[V:4] A,,8 | 
[V:1] D4B,2G,2 | 
[V:2] d8 :
[V:3] F2D2d2c2 | 
[V:4] B,,4G,,2G,2- | 
[V:1] G2A3GF2 | 
[V:2] z8 :
[V:3] B2A4d2- | 
[V:4] G,2F,2D,4 | 
[V:1] E2G3FED | 
[V:2] g8 | 
[V:3] d2^c2^c3=B | 
[V:4] E,8 | 
[V:1] F6ED | 
[V:2] a8- :
[V:3] d4c2A2- | 
[V:4] D,4F,4- | 
[V:1] C8 | 
[V:2] a8 :
[V:3] A2B2A2GF | 
[V:4] F,2G,2F,2E,D, | 
[V:1] z8 | 
[V:2] g8 :
[V:3] GFEDE4 | 
[V:4] E,2C,4B,,2 | 
[V:1] (3D6E2F4 | 
[V:2] f8 :
[V:3] D4z4 | 
[V:4] D,8 | 
[V:1] (3:2:4G6F2E2D2 | 
[V:2] e8- :
[V:3] E6FG | 
[V:4] C,8 | 
[V:1] (3E4^C6=B,2 | 
[V:2] e8 | 
[V:3] A8 | 
[V:4] A,,8 | 
[V:1] D4z2D2- | 
[V:2] d8- :
[V:3] F4G2F2 | 
[V:4] B,,4G,,2D,2- | 
[V:1] DCA,2B,2D2- | 
[V:2] d8- :
[V:3] D4z2G2- | 
[V:4] D,E,F,2G,2B,2- | 
[V:1] DCB,2A,4 | 
[V:2] d8 :
[V:3] G4D4 | 
[V:4] B,A,G,4^F,2 | 
[V:1] z2G,2G4 | 
[V:2] z8 :
[V:3] (3G6A2B4 | 
[V:4] G,4G,,4 | 
[V:1] E4E4- | 
[V:2] x8 :
[V:3] (3:2:4c6B2A2G2 | 
[V:4] A,,8 | 
[V:1] E2FGA4 | 
[V:2] x8 | 
[V:3] (3A4^F6E2 | 
[V:4] A,,8 | 
[V:1] B2G4FE | 
[V:2] G8- :
[V:3] G4B4- | 
[V:4] G,,4z4 | 
[V:1] D8 | 
[V:2] G8 :
[V:3] B2c2d4 | 
[V:4] G,,8- | 
[V:1] G8- | 
[V:2] G8 :
[V:3] z4G4- | 
[V:4] G,,4C,4- | 
[V:1] G4A4- | 
[V:2] c8- :
[V:3] G2c4A2- | 
[V:4] C,4F,4- | 
[V:1] A2B2c4 | 
[V:2] c8 :
[V:3] A2G2F4 | 
[V:4] F,2G,2A,4- | 
[V:1] A6GA | 
[V:2] c8 | 
[V:3] z4A4 | 
[V:4] A,2G,A,F,3E, | 
[V:1] B6AG | 
[V:2] B8 :
[V:3] d4d4- | 
[V:4] G,8 | 
[V:1] F3GA4- | 
[V:2] A8- :
[V:3] d2e2f3e | 
[V:4] D,8 | 
[V:1] A2GA^F3E | 
[V:2] A8 :
[V:3] c4d4 | 
[V:4] z4D,4 | 
[V:1] G8 | 
[V:2] G8- :
[V:3] z2B3cd2 | 
[V:4] _E,6D,2 | 
[V:1] z8 | 
[V:2] G8- :
[V:3] _e2dcd4 | 
[V:4] C,2B,,A,,B,,4 | 
[V:1] E6D2 | 
[V:2] G8 | 
[V:3] c2B4A2 | 
[V:4] C,2G,4F,2 | 
[V:1] C2=B,A,=B,4 | 
[V:2] z8 :
[V:3] G2FEF4 | 
[V:4] E,2D,C,D,4 | 
[V:1] C4z2C2 | 
[V:2] x8 :
[V:3] G2A4G2 | 
[V:4] C,2F,4E,2 | 
[V:1] D2B,2A,4 | 
[V:2] x8 :
[V:3] F2G2D4 | 
[V:4] D,2G,4^F,2 | 
[V:1] G,4B,4- | 
[V:2] d8 :
[V:3] z4G4- | 
[V:4] G,8 | 
[V:1] B,2A,G,A,4 | 
[V:2] d8- :
[V:3] G4F4- | 
[V:4] z4D,4- | 
[V:1] D6EF | 
[V:2] d8 | 
[V:3] F2GAB4 | 
[V:4] D,2E,F,G,4 | 
[V:1] G4E4 | 
[V:2] G8- :
[V:3] z2G4c2- | 
[V:4] E,4C,4- | 
[V:1] C4D4- | 
[V:2] G8- :
[V:3] c2BAB4- | 
[V:4] C,4G,,4- | 
[V:1] D4E4 | 
[V:2] G8 :
[V:3] B2A2G2FE | 
[V:4] G,,2A,,B,,C,4 | 
[V:1] F2D3CD2- | 
[V:2] d8 :
[V:3] D4z2G2- | 
[V:4] B,,4G,,4 | 
[V:1] D2B,3CDE | 
[V:2] d8 :
[V:3] GABcd3c | 
[V:4] z2G,,3A,,B,,C, | 
[V:1] F2GAB4 | 
[V:2] d8 | 
[V:3] A4z2G2 | 
[V:4] D,2E,F,G,4 | 
[V:1] A2F3ED2 | 
[V:2] d8 :
[V:3] A4F3G | 
[V:4] F,2D,3C,B,,2 | 
[V:1] E3FG2A2- | 
[V:2] c8- :
[V:3] ABc4A2- | 
[V:4] A,,4z2C,2- | 
[V:1] ABc3BAG | 
[V:2] c8 :
[V:3] AGFEF4 | 
[V:4] C,B,,A,,G,,A,,4 | 
[V:1] B4G2F2- | 
[V:2] B8 :
[V:3] G4d3e | 
[V:4] z2G,,4D,2- | 
[V:1] FGABc2A2- | 
[V:2] A8- :
[V:3] f3ec4- | 
[V:4] D,E,F,G,A,2F,2- | 
[V:1] AGE2^F4 | 
[V:2] A8 | 
[V:3] c2_e2d4- | 
[V:4] F,E,C,2D,4 | 
[V:1] G8- | 
[V:2] G8- :
[V:3] d2B3GBc | 
[V:4] G,,8- | 
[V:1] G8 ||  
[V:2] G8 ||  
[V:3] B8 & d8 ||  
[V:4] G,,8 ||  
[V:1]  [K:F] [K:clef=treble][M:2/1]D8 | 
[V:2]  [K:F] [K:clef=treble-8][M:2/1]z8 | 
[V:3]  [K:F] [K:clef=treble-8][M:2/1]z8 | 
[V:4]  [K:F] [K:clef=bass][M:2/1]z8 | 
[V:1] E4E4 | 
[V:2] z8 | 
[V:3] z8 | 
[V:4] z8 | 
[V:1] D2E2D2G2- | 
[V:2] z8 | 
[V:3] G8 | 
[V:4] z8 | 
[V:1] G2FEFEDC | 
[V:2] z8 | 
[V:3] A4A4 | 
[V:4] z8 | 
[V:1] B,2_E4DC | 
[V:2] z8 | 
[V:3] G2c4BA | 
[V:4] z8 | 
[V:1] D4G,4 | 
[V:2] z8 | 
[V:3] BAGFEDG2- | 
[V:4] G,,8 | 
[V:1] z4C4 | 
[V:2] z8 | 
[V:3] G2^F2^F2E2 | 
[V:4] A,,4A,,4 | 
[V:1] B,2G,4C2- | 
[V:2] z8 | 
[V:3] G4z4 | 
[V:4] G,,4C,4- | 
[V:1] C2A,2B,2C2 | 
[V:2] z8 | 
[V:3] E2F2G2A2 | 
[V:4] C,2D,2B,,2A,,2 | 
[V:1] D4E4 | 
[V:2] z8 | 
[V:3] F2G4A2- | 
[V:4] B,,2G,,2C,4 | 
[V:1] F2D4G2- | 
[V:2] z8 | 
[V:3] A2B2G4 | 
[V:4] D,4z2E,2 | 
[V:1] G2E2F2G2 | 
[V:2] z8 | 
[V:3] c4A2B2 | 
[V:4] C,4D,2B,,2 | 
[V:1] A3G/A/B2A2- | 
[V:2] z8 | 
[V:3] c2d4c2 | 
[V:4] A,,2D,3E,F,2 | 
[V:1] AGG4^F2 | 
[V:2] z8 | 
[V:3] d2B2A4 | 
[V:4] D,2G,2D,4 | 
[V:1] G8 | 
[V:2] z8 | 
[V:3] z4G4- | 
[V:4] z2G,,3A,,B,,2 | 
[V:1] z8 | 
[V:2] z8 | 
[V:3] G2A4B2 | 
[V:4] C,4D,4 | 
[V:1] z8 | 
[V:2] z8 | 
[V:3] c3de2f2- | 
[V:4] E,3F,G,2D,2- | 
[V:1] z8 | 
[V:2] z8 | 
[V:3] fedcB2_e2- | 
[V:4] D,E,F,2G,4 | 
[V:1] z8 | 
[V:2] z8 | 
[V:3] edc4=B2 | 
[V:4] C,2E,2D,4 | 
[V:1] z4G4- | 
[V:2] z8 | 
[V:3] c8 | 
[V:4] C,4z2E,2- | 
[V:1] G2FEF2G2 | 
[V:2] z8 | 
[V:3] z4d4- | 
[V:4] E,2F,2D,4- | 
[V:1] A8 | 
[V:2] z8 | 
[V:3] d2cBA4 | 
[V:4] D,2E,2F,3E, | 
[V:1] B4c4- | 
[V:2] z8 | 
[V:3] G4z2A2- | 
[V:4] G,4F,4- | 
[V:1] c2B2A2GF | 
[V:2] z8 | 
[V:3] A2B2c4- | 
[V:4] F,2G,2F,2E,D, | 
[V:1] E2A4G2 | 
[V:2] z8 | 
[V:3] c2A2B4 | 
[V:4] C,2D,2G,,4 | 
[V:1] A8 | 
[V:2] z8 | 
[V:3] A4z4 | 
[V:4] z2D,3C,A,,2 | 
[V:1] z4D4- | 
[V:2] z8 | 
[V:3] D6G2- | 
[V:4] B,,4z2G,,2- | 
[V:1] D2G6 | 
[V:2] z8 | 
[V:3] G4E4- | 
[V:4] G,,4C,4- | 
[V:1] E6A2- | 
[V:2] z8 | 
[V:3] E2A3GFE | 
[V:4] C,2A,,6 | 
[V:1] AGFED2F2- | 
[V:2] z8 | 
[V:3] D2F3ED2 | 
[V:4] D,4B,,3C, | 
[V:1] FED4^C2 | 
[V:2] z8 | 
[V:3] F2G2E4 | 
[V:4] D,2G,,2A,,4 | 
[V:1] D8 | 
[V:2] z8 | 
[V:3] D4z4 | 
[V:4] z2A,2B,2A,G, | 
[V:1] z8 | 
[V:2] z8 | 
[V:3] D3EF2G2- | 
[V:4] F,3G,A,2B,2- | 
[V:1] z4C4 | 
[V:2] z8 | 
[V:3] G2^FE^F4 | 
[V:4] B,2A,G,A,4 | 
[V:1] B,2D3CA,2- | 
[V:2] z8 | 
[V:3] G4d3c | 
[V:4] z2G,2D,3E, | 
[V:1] A,B,C3B,G,2 | 
[V:2] z8 | 
[V:3] A3G/F/G2E2- | 
[V:4] F,3E,C,4- | 
[V:1] A,2G,4^F,2 | 
[V:2] z8 | 
[V:3] EDD4C2 | 
[V:4] C,2B,,2A,,4 | 
[V:1] G,8 | 
[V:2] z8 | 
[V:3] D4D4 | 
[V:4] G,,8- | 
[V:1] z4G,4 | 
[V:2] z8 | 
[V:3] G4z4 | 
[V:4] G,,8 | 
[V:1] C4z4 | 
[V:2] z8 | 
[V:3] C4G4- | 
[V:4] z4G,,4 | 
[V:1] C4G4- | 
[V:2] z8 | 
[V:3] G2F2E2D2 | 
[V:4] C,4z4 | 
[V:1] G2F2E2DC | 
[V:2] z8 | 
[V:3] E4C4 | 
[V:4] C,4G,4- | 
[V:1] D4E4 | 
[V:2] z8 | 
[V:3] G6A2- | 
[V:4] G,2F,2E,2D,C, | 
[V:1] F4G2C2- | 
[V:2] z8 | 
[V:3] A4G4 | 
[V:4] D,4E,4 | 
[V:1] C2D4E2 | 
[V:2] z8 | 
[V:3] A4B2c2- | 
[V:4] F,4G,2C,2 | 
[V:1] C2F3EDC | 
[V:2] z8 | 
[V:3] cBAGd2B2- | 
[V:4] F,3E,D,C,G,2- | 
[V:1] D2C4=B,2 | 
[V:2] z8 | 
[V:3] BAG4F2 | 
[V:4] G,F,E,2D,4 | 
[V:1] C8 | 
[V:2] z8 | 
[V:3] G8 | 
[V:4] C,8 | 
[V:1] [M:3/1]G,8B,4- | 
[V:2] [M:3/1]z12 | 
[V:3] [M:3/1]E4G6F2 | 
[V:4] [M:3/1]z12 | 
[V:1] B,4C8 | 
[V:2] z12 | 
[V:3] G4A4^F3E | 
[V:4] z12 | 
[V:1] G,4B,6C2 | 
[V:2] z12 | 
[V:3] G12 | 
[V:4] G,,8B,,4- | 
[V:1] D4E4F4 | 
[V:2] z12 | 
[V:3] z12 | 
[V:4] B,,4A,,8 | 
[V:1] G4B6A2 | 
[V:2] z12 | 
[V:3] G8B4- | 
[V:4] G,,4G,6F,2 | 
[V:1] G4c8 | 
[V:2] z12 | 
[V:3] B4A8 | 
[V:4] G,4A,4^F,3E, | 
[V:1] B4A6G2 | 
[V:2] z12 | 
[V:3] G4z4d4- | 
[V:4] G,4D,6E,2 | 
[V:1] F2E2D4G4- | 
[V:2] z12 | 
[V:3] d2c2B2A2G4 | 
[V:4] F,4G,4E,4 | 
[V:1] G2E2F2G2A4 | 
[V:2] z12 | 
[V:3] c4A2B2c4 | 
[V:4] C,4D,2B,,2A,,4 | 
[V:1] B6A6 | 
[V:2] z12 | 
[V:3] d8c4 | 
[V:4] G,,4z2D,2F,4 | 
[V:1] G6^F2F2EF | 
[V:2] z12 | 
[V:3] B4A8 | 
[V:4] G,4D,8 | 
[V:1] G12 ||  
[V:2] z12 ||  
[V:3] G12 ||  
[V:4] G,,12 ||  



